images/171943.svg

<?xml version="1.0" encoding="UTF-8"?>
<svg xmlns="http://www.w3.org/2000/svg" xmlns:xlink="http://www.w3.org/1999/xlink" width="300pt" height="300pt" viewBox="0 0 300 300" version="1.1">
<defs>
<g>
<symbol overflow="visible" id="glyph0-0">
<path style="stroke:none;" d="M 0.546875 1.9375 L 0.546875 -7.75 L 6.046875 -7.75 L 6.046875 1.9375 Z M 1.171875 1.328125 L 5.4375 1.328125 L 5.4375 -7.140625 L 1.171875 -7.140625 Z M 1.171875 1.328125 "/>
</symbol>
<symbol overflow="visible" id="glyph0-1">
<path style="stroke:none;" d="M 4.328125 -7.28125 C 3.546875 -7.28125 2.921875 -6.984375 2.453125 -6.390625 C 1.992188 -5.804688 1.765625 -5.007812 1.765625 -4 C 1.765625 -2.988281 1.992188 -2.1875 2.453125 -1.59375 C 2.921875 -1.007812 3.546875 -0.71875 4.328125 -0.71875 C 5.117188 -0.71875 5.742188 -1.007812 6.203125 -1.59375 C 6.660156 -2.1875 6.890625 -2.988281 6.890625 -4 C 6.890625 -5.007812 6.660156 -5.804688 6.203125 -6.390625 C 5.742188 -6.984375 5.117188 -7.28125 4.328125 -7.28125 Z M 4.328125 -8.171875 C 5.453125 -8.171875 6.351562 -7.789062 7.03125 -7.03125 C 7.707031 -6.28125 8.046875 -5.269531 8.046875 -4 C 8.046875 -2.738281 7.707031 -1.726562 7.03125 -0.96875 C 6.351562 -0.21875 5.453125 0.15625 4.328125 0.15625 C 3.203125 0.15625 2.300781 -0.21875 1.625 -0.96875 C 0.957031 -1.71875 0.625 -2.726562 0.625 -4 C 0.625 -5.269531 0.957031 -6.28125 1.625 -7.03125 C 2.300781 -7.789062 3.203125 -8.171875 4.328125 -8.171875 Z M 4.328125 -8.171875 "/>
</symbol>
<symbol overflow="visible" id="glyph0-2">
<path style="stroke:none;" d="M 1.078125 -8.015625 L 2.171875 -8.015625 L 2.171875 -4.734375 L 6.109375 -4.734375 L 6.109375 -8.015625 L 7.1875 -8.015625 L 7.1875 0 L 6.109375 0 L 6.109375 -3.8125 L 2.171875 -3.8125 L 2.171875 0 L 1.078125 0 Z M 1.078125 -8.015625 "/>
</symbol>
</g>
</defs>
<g id="surface28461">
<rect x="0" y="0" width="300" height="300" style="fill:rgb(100%,100%,100%);fill-opacity:1;stroke:none;"/>
<path style="fill:none;stroke-width:1.2;stroke-linecap:butt;stroke-linejoin:miter;stroke:rgb(100%,0%,0%);stroke-opacity:1;stroke-miterlimit:10;" d="M 122.539062 168.261719 L 108.808594 166.847656 "/>
<path style="fill:none;stroke-width:1.2;stroke-linecap:butt;stroke-linejoin:miter;stroke:rgb(0%,0%,0%);stroke-opacity:1;stroke-miterlimit:10;" d="M 108.808594 166.847656 L 95.078125 165.429688 "/>
<path style="fill:none;stroke-width:1.2;stroke-linecap:butt;stroke-linejoin:miter;stroke:rgb(0%,0%,0%);stroke-opacity:1;stroke-miterlimit:10;" d="M 138.722656 145.898438 L 130.628906 157.082031 "/>
<path style="fill:none;stroke-width:1.2;stroke-linecap:butt;stroke-linejoin:miter;stroke:rgb(100%,0%,0%);stroke-opacity:1;stroke-miterlimit:10;" d="M 130.628906 157.082031 L 122.539062 168.261719 "/>
<path style=" stroke:none;fill-rule:nonzero;fill:rgb(100%,100%,100%);fill-opacity:1;" d="M 118.539062 161.761719 L 127.539062 161.761719 L 127.539062 174.761719 L 118.539062 174.761719 Z M 118.539062 161.761719 "/>
<g style="fill:rgb(100%,0%,0%);fill-opacity:1;">
  <use xlink:href="#glyph0-1" x="118.539062" y="171.663086"/>
</g>
<path style="fill:none;stroke-width:1.2;stroke-linecap:butt;stroke-linejoin:miter;stroke:rgb(0%,0%,0%);stroke-opacity:1;stroke-miterlimit:10;" d="M 95.078125 165.429688 L 83.800781 140.234375 "/>
<path style="fill:none;stroke-width:1.2;stroke-linecap:butt;stroke-linejoin:miter;stroke:rgb(0%,0%,0%);stroke-opacity:1;stroke-miterlimit:10;" d="M 88.019531 165.566406 L 79 145.40625 "/>
<path style="fill:none;stroke-width:1.2;stroke-linecap:butt;stroke-linejoin:miter;stroke:rgb(0%,0%,0%);stroke-opacity:1;stroke-miterlimit:10;" d="M 78.894531 187.796875 L 95.078125 165.429688 "/>
<path style="fill:none;stroke-width:1.2;stroke-linecap:butt;stroke-linejoin:miter;stroke:rgb(0%,0%,0%);stroke-opacity:1;stroke-miterlimit:10;" d="M 83.800781 140.234375 L 99.984375 117.867188 "/>
<path style="fill:none;stroke-width:1.2;stroke-linecap:butt;stroke-linejoin:miter;stroke:rgb(0%,0%,0%);stroke-opacity:1;stroke-miterlimit:10;" d="M 83.800781 140.234375 L 56.339844 137.402344 "/>
<path style="fill:none;stroke-width:1.2;stroke-linecap:butt;stroke-linejoin:miter;stroke:rgb(0%,0%,0%);stroke-opacity:1;stroke-miterlimit:10;" d="M 102.949219 116.539062 L 97.308594 103.941406 "/>
<path style="fill:none;stroke-width:1.2;stroke-linecap:butt;stroke-linejoin:miter;stroke:rgb(100%,0%,0%);stroke-opacity:1;stroke-miterlimit:10;" d="M 97.308594 103.941406 L 91.671875 91.34375 "/>
<path style="fill:none;stroke-width:1.2;stroke-linecap:butt;stroke-linejoin:miter;stroke:rgb(0%,0%,0%);stroke-opacity:1;stroke-miterlimit:10;" d="M 97.019531 119.195312 L 91.378906 106.59375 "/>
<path style="fill:none;stroke-width:1.2;stroke-linecap:butt;stroke-linejoin:miter;stroke:rgb(100%,0%,0%);stroke-opacity:1;stroke-miterlimit:10;" d="M 91.378906 106.59375 L 85.742188 93.996094 "/>
<path style="fill:none;stroke-width:1.2;stroke-linecap:butt;stroke-linejoin:miter;stroke:rgb(0%,0%,0%);stroke-opacity:1;stroke-miterlimit:10;" d="M 99.984375 117.867188 L 127.445312 120.699219 "/>
<path style=" stroke:none;fill-rule:nonzero;fill:rgb(100%,100%,100%);fill-opacity:1;" d="M 79.707031 86.167969 L 88.707031 86.167969 L 88.707031 99.167969 L 79.707031 99.167969 Z M 79.707031 86.167969 "/>
<g style="fill:rgb(100%,0%,0%);fill-opacity:1;">
  <use xlink:href="#glyph0-1" x="79.707031" y="96.069336"/>
</g>
<path style="fill:none;stroke-width:1.2;stroke-linecap:butt;stroke-linejoin:miter;stroke:rgb(0%,0%,0%);stroke-opacity:1;stroke-miterlimit:10;" d="M 127.445312 120.699219 L 138.722656 145.898438 "/>
<path style="fill:none;stroke-width:1.2;stroke-linecap:butt;stroke-linejoin:miter;stroke:rgb(0%,0%,0%);stroke-opacity:1;stroke-miterlimit:10;" d="M 122.644531 125.871094 L 131.664062 146.03125 "/>
<path style="fill:none;stroke-width:1.2;stroke-linecap:butt;stroke-linejoin:miter;stroke:rgb(0%,0%,0%);stroke-opacity:1;stroke-miterlimit:10;" d="M 138.722656 145.898438 L 166.183594 148.730469 "/>
<path style="fill:none;stroke-width:1.2;stroke-linecap:butt;stroke-linejoin:miter;stroke:rgb(0%,0%,0%);stroke-opacity:1;stroke-miterlimit:10;" d="M 166.183594 148.730469 L 177.460938 173.929688 "/>
<path style="fill:none;stroke-width:1.2;stroke-linecap:butt;stroke-linejoin:miter;stroke:rgb(0%,0%,0%);stroke-opacity:1;stroke-miterlimit:10;" d="M 173.238281 148.597656 L 182.261719 168.753906 "/>
<path style="fill:none;stroke-width:1.2;stroke-linecap:butt;stroke-linejoin:miter;stroke:rgb(0%,0%,0%);stroke-opacity:1;stroke-miterlimit:10;" d="M 182.367188 126.363281 L 166.183594 148.730469 "/>
<path style="fill:none;stroke-width:1.2;stroke-linecap:butt;stroke-linejoin:miter;stroke:rgb(0%,0%,0%);stroke-opacity:1;stroke-miterlimit:10;" d="M 177.460938 173.929688 L 204.921875 176.761719 "/>
<path style="fill:none;stroke-width:1.2;stroke-linecap:butt;stroke-linejoin:miter;stroke:rgb(0%,0%,0%);stroke-opacity:1;stroke-miterlimit:10;" d="M 204.921875 176.761719 L 210.5625 189.359375 "/>
<path style="fill:none;stroke-width:1.2;stroke-linecap:butt;stroke-linejoin:miter;stroke:rgb(100%,0%,0%);stroke-opacity:1;stroke-miterlimit:10;" d="M 210.5625 189.359375 L 216.199219 201.957031 "/>
<path style="fill:none;stroke-width:1.2;stroke-linecap:butt;stroke-linejoin:miter;stroke:rgb(0%,0%,0%);stroke-opacity:1;stroke-miterlimit:10;" d="M 204.921875 176.761719 L 221.105469 154.394531 "/>
<path style="fill:none;stroke-width:1.2;stroke-linecap:butt;stroke-linejoin:miter;stroke:rgb(0%,0%,0%);stroke-opacity:1;stroke-miterlimit:10;" d="M 201.277344 170.714844 L 214.226562 152.824219 "/>
<path style=" stroke:none;fill-rule:nonzero;fill:rgb(100%,100%,100%);fill-opacity:1;" d="M 208.199219 195.457031 L 225.199219 195.457031 L 225.199219 208.457031 L 208.199219 208.457031 Z M 208.199219 195.457031 "/>
<g style="fill:rgb(100%,0%,0%);fill-opacity:1;">
  <use xlink:href="#glyph0-1" x="208.199219" y="205.358398"/>
  <use xlink:href="#glyph0-2" x="216.599609" y="205.358398"/>
</g>
<path style="fill:none;stroke-width:1.2;stroke-linecap:butt;stroke-linejoin:miter;stroke:rgb(0%,0%,0%);stroke-opacity:1;stroke-miterlimit:10;" d="M 221.105469 154.394531 L 234.835938 155.808594 "/>
<path style="fill:none;stroke-width:1.2;stroke-linecap:butt;stroke-linejoin:miter;stroke:rgb(100%,0%,0%);stroke-opacity:1;stroke-miterlimit:10;" d="M 234.835938 155.808594 L 248.566406 157.226562 "/>
<path style="fill:none;stroke-width:1.2;stroke-linecap:butt;stroke-linejoin:miter;stroke:rgb(0%,0%,0%);stroke-opacity:1;stroke-miterlimit:10;" d="M 221.105469 154.394531 L 209.828125 129.195312 "/>
<path style="fill:none;stroke-width:1.2;stroke-linecap:butt;stroke-linejoin:miter;stroke:rgb(100%,0%,0%);stroke-opacity:1;stroke-miterlimit:10;" d="M 248.566406 157.226562 L 256.660156 146.042969 "/>
<path style="fill:none;stroke-width:1.2;stroke-linecap:butt;stroke-linejoin:miter;stroke:rgb(0%,0%,0%);stroke-opacity:1;stroke-miterlimit:10;" d="M 256.660156 146.042969 L 264.75 134.859375 "/>
<path style=" stroke:none;fill-rule:nonzero;fill:rgb(100%,100%,100%);fill-opacity:1;" d="M 244.566406 150.726562 L 253.566406 150.726562 L 253.566406 163.726562 L 244.566406 163.726562 Z M 244.566406 150.726562 "/>
<g style="fill:rgb(100%,0%,0%);fill-opacity:1;">
  <use xlink:href="#glyph0-1" x="244.566406" y="160.62793"/>
</g>
<path style="fill:none;stroke-width:1.2;stroke-linecap:butt;stroke-linejoin:miter;stroke:rgb(0%,0%,0%);stroke-opacity:1;stroke-miterlimit:10;" d="M 209.828125 129.195312 L 182.367188 126.363281 "/>
<path style="fill:none;stroke-width:1.2;stroke-linecap:butt;stroke-linejoin:miter;stroke:rgb(0%,0%,0%);stroke-opacity:1;stroke-miterlimit:10;" d="M 206.414062 135.375 L 184.445312 133.109375 "/>
<path style="fill:none;stroke-width:1.2;stroke-linecap:butt;stroke-linejoin:miter;stroke:rgb(0%,0%,0%);stroke-opacity:1;stroke-miterlimit:10;" d="M 56.339844 137.402344 L 50.699219 124.800781 "/>
<path style="fill:none;stroke-width:1.2;stroke-linecap:butt;stroke-linejoin:miter;stroke:rgb(100%,0%,0%);stroke-opacity:1;stroke-miterlimit:10;" d="M 50.699219 124.800781 L 45.0625 112.203125 "/>
<path style="fill:none;stroke-width:1.2;stroke-linecap:butt;stroke-linejoin:miter;stroke:rgb(0%,0%,0%);stroke-opacity:1;stroke-miterlimit:10;" d="M 56.339844 137.402344 L 40.15625 159.765625 "/>
<path style="fill:none;stroke-width:1.2;stroke-linecap:butt;stroke-linejoin:miter;stroke:rgb(0%,0%,0%);stroke-opacity:1;stroke-miterlimit:10;" d="M 59.984375 143.445312 L 47.035156 161.339844 "/>
<path style=" stroke:none;fill-rule:nonzero;fill:rgb(100%,100%,100%);fill-opacity:1;" d="M 28.0625 105.703125 L 45.0625 105.703125 L 45.0625 118.703125 L 28.0625 118.703125 Z M 28.0625 105.703125 "/>
<g style="fill:rgb(100%,0%,0%);fill-opacity:1;">
  <use xlink:href="#glyph0-2" x="28.0625" y="115.604492"/>
  <use xlink:href="#glyph0-1" x="36.086914" y="115.604492"/>
</g>
<path style="fill:none;stroke-width:1.2;stroke-linecap:butt;stroke-linejoin:miter;stroke:rgb(0%,0%,0%);stroke-opacity:1;stroke-miterlimit:10;" d="M 40.15625 159.765625 L 51.433594 184.964844 "/>
<path style="fill:none;stroke-width:1.2;stroke-linecap:butt;stroke-linejoin:miter;stroke:rgb(0%,0%,0%);stroke-opacity:1;stroke-miterlimit:10;" d="M 51.433594 184.964844 L 43.339844 196.148438 "/>
<path style="fill:none;stroke-width:1.2;stroke-linecap:butt;stroke-linejoin:miter;stroke:rgb(100%,0%,0%);stroke-opacity:1;stroke-miterlimit:10;" d="M 43.339844 196.148438 L 35.25 207.332031 "/>
<path style="fill:none;stroke-width:1.2;stroke-linecap:butt;stroke-linejoin:miter;stroke:rgb(0%,0%,0%);stroke-opacity:1;stroke-miterlimit:10;" d="M 51.433594 184.964844 L 78.894531 187.796875 "/>
<path style="fill:none;stroke-width:1.2;stroke-linecap:butt;stroke-linejoin:miter;stroke:rgb(0%,0%,0%);stroke-opacity:1;stroke-miterlimit:10;" d="M 54.847656 178.785156 L 76.816406 181.050781 "/>
<path style=" stroke:none;fill-rule:nonzero;fill:rgb(100%,100%,100%);fill-opacity:1;" d="M 18.25 200.832031 L 35.25 200.832031 L 35.25 213.832031 L 18.25 213.832031 Z M 18.25 200.832031 "/>
<g style="fill:rgb(100%,0%,0%);fill-opacity:1;">
  <use xlink:href="#glyph0-2" x="18.25" y="210.733398"/>
  <use xlink:href="#glyph0-1" x="26.274414" y="210.733398"/>
</g>
</g>
</svg>

<svg xmlns="http://www.w3.org/2000/svg" xmlns:xlink="http://www.w3.org/1999/xlink" width="300pt" height="300pt" viewBox="0 0 300 300"><defs><symbol overflow="visible"><path d="M.547 1.938V-7.75h5.5v9.688zm.625-.61h4.266v-8.47H1.171zm0 0"/></symbol><symbol overflow="visible" id="a"><path d="M4.328-7.28c-.78 0-1.406.296-1.875.89-.46.585-.687 1.382-.687 2.39 0 1.012.226 1.813.687 2.406.47.586 1.094.875 1.875.875.79 0 1.414-.288 1.875-.874.457-.593.688-1.394.688-2.406 0-1.008-.23-1.805-.687-2.39-.46-.594-1.086-.89-1.875-.89zm0-.892c1.125 0 2.024.383 2.703 1.14C7.708-6.28 8.048-5.27 8.048-4c0 1.262-.34 2.273-1.016 3.03C6.353-.22 5.454.157 4.33.157S2.3-.22 1.625-.97c-.668-.75-1-1.757-1-3.03 0-1.27.332-2.28 1-3.03.676-.76 1.578-1.142 2.703-1.142zm0 0"/></symbol><symbol overflow="visible" id="b"><path d="M1.078-8.016h1.094v3.282H6.11v-3.282h1.077V0H6.11v-3.813H2.17V0H1.078zm0 0"/></symbol></defs><g><path fill="#fff" d="M0 0h300v300H0z"/><path d="M122.54 168.262l-13.73-1.414" stroke-width="1.2" stroke="#f00" stroke-miterlimit="10" fill="none"/><path d="M108.81 166.848l-13.732-1.418M138.723 145.898l-8.094 11.184" stroke-width="1.2" stroke="#000" stroke-miterlimit="10" fill="none"/><path d="M130.63 157.082l-8.09 11.18" stroke-width="1.2" stroke="#f00" stroke-miterlimit="10" fill="none"/><path d="M118.54 161.762h9v13h-9zm0 0" fill="#fff"/><use xlink:href="#a" x="118.539" y="171.663" fill="#f00"/><path d="M95.078 165.43L83.8 140.234M88.02 165.566L79 145.406M78.895 187.797l16.183-22.367M83.8 140.234l16.184-22.367M83.8 140.234l-27.46-2.832M102.95 116.54l-5.64-12.6" stroke-width="1.2" stroke="#000" stroke-miterlimit="10" fill="none"/><path d="M97.31 103.94L91.67 91.345" stroke-width="1.2" stroke="#f00" stroke-miterlimit="10" fill="none"/><path d="M97.02 119.195l-5.64-12.6" stroke-width="1.2" stroke="#000" stroke-miterlimit="10" fill="none"/><path d="M91.38 106.594L85.74 93.996" stroke-width="1.2" stroke="#f00" stroke-miterlimit="10" fill="none"/><path d="M99.984 117.867l27.46 2.832" stroke-width="1.2" stroke="#000" stroke-miterlimit="10" fill="none"/><path d="M79.707 86.168h9v13h-9zm0 0" fill="#fff"/><use xlink:href="#a" x="79.707" y="96.069" fill="#f00"/><path d="M127.445 120.7l11.278 25.198M122.645 125.87l9.02 20.16M138.723 145.898l27.46 2.832M166.184 148.73l11.277 25.2M173.238 148.598l9.024 20.156M182.367 126.363l-16.183 22.367M177.46 173.93l27.462 2.832M204.922 176.762l5.64 12.597" stroke-width="1.2" stroke="#000" stroke-miterlimit="10" fill="none"/><path d="M210.563 189.36l5.636 12.597" stroke-width="1.2" stroke="#f00" stroke-miterlimit="10" fill="none"/><path d="M204.922 176.762l16.183-22.367M201.277 170.715l12.95-17.89" stroke-width="1.2" stroke="#000" stroke-miterlimit="10" fill="none"/><path d="M208.2 195.457h17v13h-17zm0 0" fill="#fff"/><g fill="#f00"><use xlink:href="#a" x="208.199" y="205.358"/><use xlink:href="#b" x="216.6" y="205.358"/></g><path d="M221.105 154.395l13.73 1.414" stroke-width="1.2" stroke="#000" stroke-miterlimit="10" fill="none"/><path d="M234.836 155.81l13.73 1.417" stroke-width="1.2" stroke="#f00" stroke-miterlimit="10" fill="none"/><path d="M221.105 154.395l-11.277-25.2" stroke-width="1.2" stroke="#000" stroke-miterlimit="10" fill="none"/><path d="M248.566 157.227l8.094-11.184" stroke-width="1.2" stroke="#f00" stroke-miterlimit="10" fill="none"/><path d="M256.66 146.043l8.09-11.184" stroke-width="1.2" stroke="#000" stroke-miterlimit="10" fill="none"/><path d="M244.566 150.727h9v13h-9zm0 0" fill="#fff"/><use xlink:href="#a" x="244.566" y="160.628" fill="#f00"/><path d="M209.828 129.195l-27.46-2.832M206.414 135.375l-21.97-2.266M56.34 137.402l-5.64-12.6" stroke-width="1.2" stroke="#000" stroke-miterlimit="10" fill="none"/><path d="M50.7 124.8l-5.638-12.597" stroke-width="1.2" stroke="#f00" stroke-miterlimit="10" fill="none"/><path d="M56.34 137.402l-16.184 22.364M59.984 143.445l-12.95 17.895" stroke-width="1.2" stroke="#000" stroke-miterlimit="10" fill="none"/><path d="M28.063 105.703h17v13h-17zm0 0" fill="#fff"/><g fill="#f00"><use xlink:href="#b" x="28.063" y="115.604"/><use xlink:href="#a" x="36.087" y="115.604"/></g><path d="M40.156 159.766l11.278 25.2M51.434 184.965l-8.094 11.183" stroke-width="1.2" stroke="#000" stroke-miterlimit="10" fill="none"/><path d="M43.34 196.148l-8.09 11.184" stroke-width="1.2" stroke="#f00" stroke-miterlimit="10" fill="none"/><path d="M51.434 184.965l27.46 2.832M54.848 178.785l21.968 2.266" stroke-width="1.2" stroke="#000" stroke-miterlimit="10" fill="none"/><path d="M18.25 200.832h17v13h-17zm0 0" fill="#fff"/><g fill="#f00"><use xlink:href="#b" x="18.25" y="210.733"/><use xlink:href="#a" x="26.274" y="210.733"/></g></g></svg>
